assets/symbols/mulberry/lowest.svg

<svg height="850.394" viewBox="0 0 850.394 850.394" width="850.394" xmlns="http://www.w3.org/2000/svg"><path d="m328.439 61.481h188.124v188.12h-188.124z" fill="none"/><path d="m516.563 239.601h-188.124l10 10v-149.067-39.053l-10 10h188.124l-10-10v188.12c0 12.897 20 12.897 20 0v-149.067-39.053c0-5.451-4.549-10-10-10h-188.124c-5.451 0-10 4.549-10 10v188.12c0 5.451 4.549 10 10 10h188.124c12.898 0 12.898-20 0-20z" fill="#231f20"/><path d="m328.439 321.328h188.124v188.119h-188.124z" fill="none"/><path d="m516.563 499.447h-188.124l10 10v-149.066-39.053l-10 10h188.124l-10-10v188.119c0 12.897 20 12.897 20 0v-149.066-39.053c0-5.451-4.549-10-10-10h-188.124c-5.451 0-10 4.549-10 10v188.119c0 5.451 4.549 10 10 10h188.124c12.898 0 12.898-20 0-20z" fill="#231f20"/><path d="m328.439 599.484h188.124v188.111h-188.124z" fill="none"/><g fill="#5668af"><circle cx="328.439" cy="756.244" r="14.292"/><circle cx="328.439" cy="724.892" r="14.292"/><circle cx="328.439" cy="693.539" r="14.292"/><circle cx="328.439" cy="662.188" r="14.292"/><circle cx="328.439" cy="630.836" r="14.292"/><circle cx="359.793" cy="599.484" r="14.292"/><circle cx="391.148" cy="599.484" r="14.292"/><circle cx="422.502" cy="599.484" r="14.292"/><circle cx="453.856" cy="599.484" r="14.292"/><circle cx="485.21" cy="599.484" r="14.292"/><circle cx="516.563" cy="630.836" r="14.292"/><circle cx="516.563" cy="662.188" r="14.292"/><circle cx="516.563" cy="693.541" r="14.292"/><circle cx="516.563" cy="724.893" r="14.292"/><circle cx="516.563" cy="756.244" r="14.292"/><circle cx="485.209" cy="787.596" r="14.292"/><circle cx="453.855" cy="787.596" r="14.292"/><circle cx="422.501" cy="787.596" r="14.292"/><circle cx="391.147" cy="787.596" r="14.292"/><circle cx="359.792" cy="787.596" r="14.292"/><circle cx="328.44" cy="599.484" r="14.292"/><circle cx="516.563" cy="599.484" r="14.292"/><circle cx="516.563" cy="787.596" r="14.292"/><circle cx="328.439" cy="787.596" r="14.292"/></g><path d="m0 0h850.394v850.394h-850.394z" fill="none"/></svg>

<svg xmlns="http://www.w3.org/2000/svg" width="850.394" height="850.394" viewBox="0 0 850.394 850.394" overflow="visible"><path fill="none" d="M328.439 61.481h188.124v188.12H328.439z"/><path d="M516.563 239.601H328.439l10 10V100.534 61.481l-10 10h188.124l-10-10v188.12c0 12.897 20 12.897 20 0V100.534 61.481c0-5.451-4.549-10-10-10H328.439c-5.451 0-10 4.549-10 10v188.12c0 5.451 4.549 10 10 10h188.124c12.898 0 12.898-20 0-20z" fill="#231f20"/><path fill="none" d="M328.439 321.328h188.124v188.119H328.439z"/><path d="M516.563 499.447H328.439l10 10V360.381v-39.053l-10 10h188.124l-10-10v188.119c0 12.897 20 12.897 20 0V360.381v-39.053c0-5.451-4.549-10-10-10H328.439c-5.451 0-10 4.549-10 10v188.119c0 5.451 4.549 10 10 10h188.124c12.898 0 12.898-20 0-20z" fill="#231f20"/><g><path fill="none" d="M328.439 599.484h188.124v188.111H328.439z"/><circle cx="328.439" cy="756.244" r="14.292" fill="#5668af"/><circle cx="328.439" cy="724.892" r="14.292" fill="#5668af"/><circle cx="328.439" cy="693.539" r="14.292" fill="#5668af"/><circle cx="328.439" cy="662.188" r="14.292" fill="#5668af"/><circle cx="328.439" cy="630.836" r="14.292" fill="#5668af"/><circle cx="359.793" cy="599.484" r="14.292" fill="#5668af"/><circle cx="391.148" cy="599.484" r="14.292" fill="#5668af"/><circle cx="422.502" cy="599.484" r="14.292" fill="#5668af"/><circle cx="453.856" cy="599.484" r="14.292" fill="#5668af"/><circle cx="485.21" cy="599.484" r="14.292" fill="#5668af"/><circle cx="516.563" cy="630.836" r="14.292" fill="#5668af"/><circle cx="516.563" cy="662.188" r="14.292" fill="#5668af"/><circle cx="516.563" cy="693.541" r="14.292" fill="#5668af"/><circle cx="516.563" cy="724.893" r="14.292" fill="#5668af"/><circle cx="516.563" cy="756.244" r="14.292" fill="#5668af"/><circle cx="485.209" cy="787.596" r="14.292" fill="#5668af"/><circle cx="453.855" cy="787.596" r="14.292" fill="#5668af"/><circle cx="422.501" cy="787.596" r="14.292" fill="#5668af"/><circle cx="391.147" cy="787.596" r="14.292" fill="#5668af"/><circle cx="359.792" cy="787.596" r="14.292" fill="#5668af"/><circle cx="328.44" cy="599.484" r="14.292" fill="#5668af"/><circle cx="516.563" cy="599.484" r="14.292" fill="#5668af"/><circle cx="516.563" cy="787.596" r="14.292" fill="#5668af"/><circle cx="328.439" cy="787.596" r="14.292" fill="#5668af"/></g><path fill="none" d="M0 0h850.394v850.394H0z"/></svg>
